school/img/country/HK.svg

<svg width="13" height="12" viewBox="0 0 13 12" fill="none" xmlns="http://www.w3.org/2000/svg">
<rect width="13" height="12" rx="2" fill="white"/>
<mask id="mask0" mask-type="alpha" maskUnits="userSpaceOnUse" x="0" y="0" width="13" height="12">
<rect width="13" height="12" rx="2" fill="white"/>
</mask>
<g mask="url(#mask0)">
<path fill-rule="evenodd" clip-rule="evenodd" d="M0 12H13V0H0V12Z" fill="#F0371D"/>
<path fill-rule="evenodd" clip-rule="evenodd" d="M6.49249 4.88743C6.93952 4.4039 6.9667 4.29576 7.07381 3.86977C7.10956 3.72758 7.08435 3.61079 7.05457 3.47287C7.01163 3.274 6.9592 3.03118 7.06638 2.60489C6.57865 2.40009 6.01197 2.91536 5.80067 3.75576C5.58937 4.59617 5.81346 5.44347 6.3012 5.64827C6.38851 5.68494 6.37872 5.65843 6.35222 5.58665C6.30572 5.46071 6.20776 5.19542 6.49249 4.88743ZM5.56678 5.77057C5.34907 5.07174 5.27789 5.0049 4.99748 4.74162C4.90389 4.65374 4.81015 4.64865 4.69944 4.64263C4.53982 4.63395 4.34492 4.62335 4.06432 4.35989C3.76288 4.89606 3.96697 5.75176 4.52016 6.27116C5.07335 6.79056 5.76616 6.77697 6.0676 6.2408C6.12156 6.14482 6.09903 6.14866 6.03801 6.15905C5.93096 6.17729 5.70545 6.2157 5.56678 5.77057ZM8.35717 6.15231C8.01056 6.15231 7.92258 6.15231 7.4286 5.75231C7.11395 5.49752 6.94898 5.6999 6.87067 5.79597C6.82603 5.85073 6.80955 5.87095 6.80955 5.75231C6.80955 5.08957 7.36386 4.55231 8.04764 4.55231C8.73142 4.55231 9.28574 5.08957 9.28574 5.75231C8.93889 5.75231 8.7764 5.89178 8.64331 6.00601C8.55101 6.08523 8.47286 6.15231 8.35717 6.15231ZM8.35719 5.40001C8.35719 5.51047 8.2879 5.60001 8.20243 5.60001C8.11695 5.60001 8.04767 5.51047 8.04767 5.40001C8.04767 5.28956 8.11695 5.20001 8.20243 5.20001C8.2879 5.20001 8.35719 5.28956 8.35719 5.40001ZM7.08137 7.16996C6.93965 7.9007 6.96684 8.00884 7.07394 8.43483C7.10969 8.57702 7.18321 8.65235 7.27003 8.74131C7.39523 8.86959 7.54808 9.0262 7.65526 9.4525C8.143 9.2477 8.36709 8.40039 8.15579 7.55998C7.94449 6.71958 7.37781 6.20431 6.89008 6.40911C6.80276 6.44578 6.82274 6.45979 6.87683 6.49772C6.97173 6.56429 7.17165 6.70451 7.08137 7.16996ZM7.62754 8.20237C7.54625 8.23651 7.45894 8.17902 7.43253 8.07397C7.40611 7.96892 7.4506 7.85609 7.53189 7.82195C7.61318 7.78782 7.70049 7.84531 7.7269 7.95036C7.75331 8.05541 7.70883 8.16824 7.62754 8.20237ZM5.93071 7.18126C5.34913 7.23289 5.27795 7.29972 4.99755 7.563C4.90395 7.65088 4.87123 7.76451 4.83259 7.89871C4.77688 8.09222 4.70885 8.32849 4.42825 8.59195C4.72969 9.12812 5.4225 9.14171 5.97569 8.62231C6.52888 8.10291 6.73297 7.24721 6.43153 6.71104C6.37757 6.61505 6.37343 6.64393 6.36222 6.72214C6.34256 6.85934 6.30115 7.14838 5.93071 7.18126ZM5.33969 8.17163C5.28945 8.08227 5.30478 7.95719 5.37393 7.89227C5.44308 7.82734 5.53986 7.84716 5.5901 7.93652C5.64034 8.02588 5.62501 8.15095 5.55587 8.21588C5.48672 8.2808 5.38993 8.26099 5.33969 8.17163ZM4.65532 5.35025C4.70556 5.26089 4.80234 5.24108 4.87149 5.306C4.94064 5.37093 4.95597 5.496 4.90573 5.58536C4.85549 5.67473 4.75871 5.69454 4.68956 5.62961C4.62041 5.56469 4.60508 5.43961 4.65532 5.35025ZM6.52016 3.63729C6.60145 3.67142 6.64594 3.78425 6.61952 3.8893C6.59311 3.99435 6.5058 4.05184 6.42451 4.01771C6.34322 3.98358 6.29874 3.87074 6.32515 3.76569C6.35156 3.66064 6.43887 3.60315 6.52016 3.63729Z" fill="white"/>
</g>
</svg>

<svg width="13" height="12" fill="none" xmlns="http://www.w3.org/2000/svg"><rect width="13" height="12" rx="2" fill="#fff"/><mask id="a" maskUnits="userSpaceOnUse" x="0" y="0" width="13" height="12"><rect width="13" height="12" rx="2" fill="#fff"/></mask><g mask="url(#a)" fill-rule="evenodd" clip-rule="evenodd"><path d="M0 12h13V0H0v12z" fill="#F0371D"/><path d="M6.492 4.887c.448-.483.475-.591.582-1.017.036-.142.01-.26-.02-.397-.042-.199-.095-.442.012-.868-.487-.205-1.054.31-1.265 1.15-.212.841.012 1.688.5 1.893.088.037.078.01.051-.061-.046-.126-.144-.392.14-.7zm-.925.884c-.218-.7-.29-.766-.57-1.03-.093-.087-.187-.092-.298-.098-.16-.01-.354-.02-.635-.283-.301.536-.097 1.392.456 1.911.553.52 1.246.506 1.548-.03.054-.096.031-.092-.03-.082-.107.018-.333.057-.471-.388zm2.79.381c-.346 0-.434 0-.928-.4-.315-.254-.48-.052-.558.044-.045.055-.061.075-.061-.044 0-.662.554-1.2 1.238-1.2.683 0 1.238.538 1.238 1.2-.347 0-.51.14-.643.254-.092.08-.17.146-.286.146zm0-.752c0 .11-.07.2-.155.2-.085 0-.154-.09-.154-.2 0-.11.069-.2.154-.2.086 0 .155.09.155.2zM7.081 7.17c-.141.73-.114.839-.007 1.265.036.142.11.217.196.306.125.129.278.285.385.712.488-.205.712-1.053.5-1.893-.21-.84-.777-1.356-1.265-1.15-.087.036-.067.05-.013.088.095.066.295.207.204.672zm.547 1.032c-.082.035-.17-.023-.195-.128-.027-.105.018-.218.099-.252s.168.023.195.128c.026.105-.018.218-.1.252zM5.93 7.182c-.582.05-.653.118-.933.381-.094.088-.127.202-.165.336-.056.193-.124.43-.405.693.302.536.995.55 1.548.03s.757-1.375.456-1.911c-.054-.096-.059-.067-.07.011-.02.137-.06.426-.431.46zm-.591.99c-.05-.09-.035-.215.034-.28.07-.065.166-.045.216.045.05.089.035.214-.034.279-.07.065-.166.045-.216-.044zM4.655 5.35c.05-.09.147-.109.216-.044.07.065.085.19.035.28-.05.089-.147.109-.216.044-.07-.065-.085-.19-.035-.28zM6.52 3.637c.081.034.126.147.1.252-.027.105-.114.163-.195.129-.082-.034-.126-.147-.1-.252.027-.105.114-.163.195-.129z" fill="#fff"/></g></svg>
